!!!!SEGMENT: Vin1001c-Missa_Stabat_mater-Credo.krn
!!!id: Vin1001c
!!!AGN: Mass; Credo
!!!voices: 2-5
!!!COM: Jheronimus Vinders
!!!OPR: Missa Stabat mater
!!!OTL: Credo
**kern	**kern	**kern	**kern	**kern
*part5	*part4	*part3	*part2	*part1
*staff5	*staff4	*staff3	*staff2	*staff1
*I"Bassus	*I"Tenor	*I"Altus	*I"Superius II	*I"Superius I
*I'B	*I'T	*I'A	*I'S. II	*I'S. I
*clefF4	*clefGv2	*clefGv2	*clefG2	*clefG2
*k[b-]	*k[b-]	*k[b-]	*k[b-]	*k[b-]
*F:	*F:	*F:	*F:	*F:
*M2/1	*M2/1	*M2/1	*M2/1	*M2/1
*met(C|)	*met(C|)	*met(C|)	*met(C|)	*met(C|)
!!section: Patrem
!!!OMD: Patrem
=1	=1	=1	=1	=1
0r	1r	1c	0r	0r
.	1c	1c	.	.
=2	=2	=2	=2	=2
1c	1c	1A	0r	1r
1c	1A	2F	.	1cc
.	.	2F	.	.
=3	=3	=3	=3	=3
1A	2F	1c	0r	1cc
.	2F	.	.	.
2F	1c	2c	.	1a
2F	.	[2f	.	.
=4	=4	=4	=4	=4
2.B-y	1d	4f]	0r	2f
.	.	4e	.	.
.	.	4d	.	2f
4A	.	4c	.	.
1G	1B-y	2d	.	1b-y
.	.	2e	.	.
=5	=5	=5	=5	=5
[0F	1c	1f	1cc	2.a
.	.	.	.	4f
.	2r	2r	1cc	1f
.	2c	[2F	.	.
=6	=6	=6	=6	=6
0F]	1c	4F]	1a	0r
.	.	4G	.	.
.	.	4A	.	.
.	.	4B-y	.	.
.	1A	2.c	2f	.
.	.	.	2f	.
.	.	4d	.	.
=7	=7	=7	=7	=7
0C	0G	2e	0cc	0r
.	.	1f	.	.
.	.	2e	.	.
=8	=8	=8	=8	=8
1r	1F	1f	1a	0r
1F	1A	1c	2r	.
.	.	.	2cc	.
=9	=9	=9	=9	=9
1BB-y	1B-y	1f	1dd	1r
1BB-y	1B-y	1f	1dd	1f
=10	=10	=10	=10	=10
1F	1A	1c	1cc	2.a
.	.	.	.	4b-y
1F	1F	1c	1a	1cc
=11	=11	=11	=11	=11
1D	1F	1d	1a	2f
.	.	.	.	2ff
1D	1F	1d	1f	2ff
.	.	.	.	[2ff
=12	=12	=12	=12	=12
[0C	1c	0G	0g	2ff]
.	.	.	.	4ee
.	.	.	.	4dd
.	2r	.	.	1ee
.	[2c	.	.	.
=13	=13	=13	=13	=13
0C]	2c]	2r	2r	2r
.	2c	1c	2g	2ee
.	2C	.	2g	2ee
.	2C	2c	2g	2ee
=14	=14	=14	=14	=14
0r	2.F	2A	1f	2ff
.	.	2.a	.	4ee
.	4G	.	.	4dd
.	2A	.	1f	2cc
.	.	4g	.	.
.	2B-y	[2f	.	[2dd
=15	=15	=15	=15	=15
0r	1A	2f]	1.c	2dd]
.	.	4e	.	4cc
.	.	4d	.	4b-y
.	1A	1e	.	2cc
.	.	.	2c	2cc
=16	=16	=16	=16	=16
0r	1D	1d	1f	0dd
.	[1d	2f	2r	.
.	.	2f	2a	.
=17	=17	=17	=17	=17
1.G	1d]	1d	1b-y	1r
.	1r	1d	2b-y	[1dd
2G	.	.	2b-y	.
=18	=18	=18	=18	=18
1D	1.d	1.f	1.a	2dd]
.	.	.	.	2dd
1D	.	.	.	1a
.	2d	4e	2f	.
.	.	4d	.	.
=19	=19	=19	=19	=19
1.F	1A	1c	1f	1a
.	1A	[1f	1a	[1cc
2F	.	.	.	.
=20	=20	=20	=20	=20
1C	1.c	2f]	0g	2cc]
.	.	4e	.	2cc
.	.	4d	.	.
1r	.	1e	.	1g
.	2c	.	.	.
=21	=21	=21	=21	=21
1.c	0F	1f	0f	1a
.	.	[1c	.	1cc
2B-y	.	.	.	.
=22	=22	=22	=22	=22
2A	1r	2c]	0r	2cc
2G	.	2c	.	2b-y
2F	2.F	1c	.	2a
2E	.	.	.	2g
.	4G	.	.	.
=23	=23	=23	=23	=23
1D	2A	1d	0r	2f
.	1B-y	.	.	2f
1BB-y	.	1d	.	[1b-y
.	4A	.	.	.
.	4G	.	.	.
=24	=24	=24	=24	=24
2BB-y	1F	2d	0f	2b-]
2.D	.	1f	.	4a
.	.	.	.	4g
.	1B-y	.	.	2.f
4C	.	.	.	.
4D	.	4e	.	.
4E	.	4d	.	4g
=25	=25	=25	=25	=25
1F	2A	2.c	1f	1a
.	2F	.	.	.
.	.	4d	.	.
1C	1c	1e	2e	2g
.	.	.	[2a	[2cc
=26	=26	=26	=26	=26
1F	2.A	1c	4a]	4cc]
.	.	.	4g	4b-y
.	.	.	2f	2a
.	4B-y	.	.	.
2r	1c	[1c	2e	2g
[2F	.	.	[2cc	[2a
=27	=27	=27	=27	=27
4F]	1F	2c]	4cc]	4a]
4G	.	.	4b-y	4g
4A	.	2c	2a	2f
4B-y	.	.	.	.
1c	2C	2c	2g	2e
.	[2F	2A	[2a	[2cc
=28	=28	=28	=28	=28
1F	4F]	1c	4a]	4cc]
.	4G	.	4g	4b-y
.	4A	.	2f	2a
.	4B-y	.	.	.
2C	1c	2r	2e	2g
[2F	.	2F	2c	[2a
=29	=29	=29	=29	=29
1F]	1F	2.A	[0cc	4a]
.	.	.	.	4g
.	.	.	.	1f
.	.	4B-y	.	.
1C	1G	2c	.	.
.	.	2c	.	2e
=30	=30	=30	=30	=30
2r	1F	0A	0cc]	0f
2F	.	.	.	.
1A	2r	.	.	.
.	2F	.	.	.
=31	=31	=31	=31	=31
2A	1A	1r	2r	0r
2B-y	.	.	2f	.
1c	2A	1F	1a	.
.	2B-y	.	.	.
=32	=32	=32	=32	=32
[0F	1c	1A	2a	1f
.	.	.	2b-y	.
.	1F	2A	1cc	1a
.	.	2B-y	.	.
=33	=33	=33	=33	=33
0F]	2r	1c	1f	2a
.	1c	.	.	2b-y
.	.	1F	2r	1cc
.	2c	.	2a	.
=34	=34	=34	=34	=34
2r	2d	2r	2a	1f
1F	2c	1f	2a	.
.	2A	.	2a	2r
2C	[2c	2e	2g	[2cc
=35	=35	=35	=35	=35
2F	2c]	2.c	2.a	2cc]
4E	2F	.	.	2cc
4D	.	4d	4b-y	.
2C	2G	1e	2cc	2cc
2C	2A	.	2cc	2cc
=36	=36	=36	=36	=36
4BB-y	1B-y	2d	1f	1dd
4C	.	.	.	.
4D	.	1f	.	.
4E	.	.	.	.
2F	2A	.	1r	2cc
[2G	2G	2d	.	[2b-y
=37	=37	=37	=37	=37
2G]	1c	2e	0r	2b-]
2F	.	2f	.	1a
1G	1B-y	1d	.	.
.	.	.	.	2g
=38	=38	=38	=38	=38
1D	0A	2r	1r	0a
.	.	2f	.	.
2r	.	2f	2r	.
2F	.	2f	2cc	.
=39	=39	=39	=39	=39
2F	0r	2c	2cc	0r
2F	.	1f	2cc	.
1c	.	.	1g	.
.	.	2e	.	.
=40	=40	=40	=40	=40
0F	1r	1f	0a	2r
.	.	.	.	1ff
.	2r	2r	.	.
.	2F	2a	.	2ff
=41	=41	=41	=41	=41
0r	2F	2a	0r	2cc
.	2F	2a	.	1ff
.	1c	1g	.	.
.	.	.	.	2ee
=42	=42	=42	=42	=42
1r	0F	1f	1r	0ff
2r	.	2r	2r	.
2F	.	2f	2cc	.
=43	=43	=43	=43	=43
2F	0r	2c	2cc	0r
2F	.	2f	2cc	.
2c	.	2f	2g	.
2c	.	2e	2g	.
=44	=44	=44	=44	=44
0F	1r	1f	0a	2r
.	.	.	.	2ff
.	2r	2r	.	2ff
.	2F	2a	.	2ff
=45	=45	=45	=45	=45
0r	2F	2a	0r	2cc
.	2F	2a	.	1ff
.	2c	2g	.	.
.	2c	2g	.	2ee
=46	=46	=46	=46	=46
1r	2F	1f	1r	0ff
.	2D	.	.	.
2r	1d	2r	2r	.
[2B-y	.	[2d	[2b-y	.
=47	=47	=47	=47	=47
2B-]	0r	2d]	2b-]	0r
2F	.	2c	2a	.
1G	.	1B-y	1g	.
=48	=48	=48	=48	=48
1D	2r	2A	1f	2r
.	1f	1a	.	1ff
1r	.	.	1r	.
.	2c	2g	.	2ee
=49	=49	=49	=49	=49
0r	1d	1f	0r	1dd
.	1A	1e	.	1cc
=50	=50	=50	=50	=50
2r	1d	2r	2r	0r
2B-y	.	2d	2b-y	.
2B-y	1r	2d	2b-y	.
2F	.	2c	2a	.
=51	=51	=51	=51	=51
1G	1r	1B-y	1g	1r
1D	2r	2A	1f	2r
.	2f	2a	.	2ff
=52	=52	=52	=52	=52
0r	2f	2a	0r	2ff
.	2c	2g	.	2ee
.	1d	1f	.	1dd
=53	=53	=53	=53	=53
0r	1A	2e	0r	[0cc
.	.	1c	.	.
.	[1c	.	.	.
.	.	2B-y	.	.
=54	=54	=54	=54	=54
1.c	2c]	2A	0r	0cc_
.	2B-y	2G	.	.
.	2A	2.F	.	.
2B-y	2G	.	.	.
.	.	4E	.	.
=55	=55	=55	=55	=55
2A	2F	2F	1.cc	0cc]
2G	2E	2G	.	.
[1F	1F	1A	.	.
.	.	.	2b-y	.
=56	=56	=56	=56	=56
2F]	0r	1c	2a	0r
2C	.	.	1g	.
2E	.	[1B-y	.	.
2F	.	.	[2f	.
=57	=57	=57	=57	=57
1G	1r	1B-]	2f]	1g
.	.	.	2e	.
1F	1A	1A	1f	[1cc
=58	=58	=58	=58	=58
[0C	1c	1G	2e	2cc]
.	.	.	2e	2b-y
.	2c	[1c	2.c	2a
.	2B-y	.	.	[2g
.	.	.	4d	.
=59	=59	=59	=59	=59
0C]	2A	0c]	2e	4g]
.	.	.	.	4f
.	2A	.	2f	1f
.	1G	.	1g	.
.	.	.	.	2e
=60	=60	=60	=60	=60
1c	[0F	0A	[0a	0f
2d	.	.	.	.
2c	.	.	.	.
=61	=61	=61	=61	=61
4c	0F]	1c	0a]	0r
4B-y	.	.	.	.
4A	.	.	.	.
4G	.	.	.	.
2F	.	2d	.	.
2F	.	2c	.	.
=62	=62	=62	=62	=62
2.A	1c	4c	0r	0r
.	.	4B-y	.	.
.	.	4A	.	.
4B-y	.	4G	.	.
2c	2A	2F	.	.
2c	2c	2F	.	.
=63	=63	=63	=63	=63
[0F	4c	2.A	1cc	0r
.	4B-y	.	.	.
.	4A	.	.	.
.	4G	4B-y	.	.
.	2F	2c	2a	.
.	2F	2c	2cc	.
=64	=64	=64	=64	=64
0F_	2.A	0F	4cc	1cc
.	.	.	4b-y	.
.	.	.	4a	.
.	4B-y	.	4g	.
.	2c	.	2f	2a
.	2c	.	2f	2cc
=65	=65	=65	=65	=65
0F]	[0F	0f	2.a	4cc
.	.	.	.	4b-y
.	.	.	.	4a
.	.	.	4b-y	4g
.	.	.	2cc	2f
.	.	.	2cc	2f
=66	=66	=66	=66	=66
1r	0F]	1r	1f	2.a
.	.	.	.	4b-y
2r	.	2r	2r	2cc
[2F	.	[2c	[2a	2cc
=67	=67	=67	=67	=67
2F]	2r	2c]	2a]	2f
2F	1A	2c	2a	1ff
2F	.	2c	2a	.
2F	2A	2c	2a	2ff
=68	=68	=68	=68	=68
1D	2A	1d	1a	2ff
.	2A	.	.	2ff
1F	2A	1c	1f	2ff
.	2A	.	.	2ff
=69	=69	=69	=69	=69
1C	1G	2c	0g	0ee
.	.	2G	.	.
2r	2r	2c	.	.
2C	2G	2c	.	.
=70	=70	=70	=70	=70
2F	2A	4A	0r	0r
.	.	4B-y	.	.
2F	2A	4c	.	.
.	.	4d	.	.
2E	2G	2e	.	.
[2A	[2c	[2f	.	.
=71	=71	=71	=71	=71
4A]	4c]	4f]	0r	1r
4G	4B-y	4e	.	.
2F	2A	1d	.	.
1E	1G	.	.	1ee
.	.	2c#i	.	.
=72	=72	=72	=72	=72
1D	1F 1A>	1d	2r	2.ff
.	.	.	2a	.
.	.	.	.	4ee
1r	1r	1r	2b-y	2dd
.	.	.	[2a	[2cc
=73	=73	=73	=73	=73
0r	0r	0r	2a]	2cc]
.	.	.	4g	4b-y
.	.	.	4f	4a
.	.	.	1g	2b-y
.	.	.	.	4a
.	.	.	.	4g
=74	=74	=74	=74	=74
0r	0r	0r	1a	2f
.	.	.	.	2cc
.	.	.	2f	2dd
.	.	.	[2g	[2ee
=75	=75	=75	=75	=75
0r	1r	0r	4g]	4ee]
.	.	.	4f	4dd
.	.	.	2e	1cc
.	1G	.	1d	.
.	.	.	.	2bnXi
=76	=76	=76	=76	=76
1C	2c	2r	2c	1cc
.	2c	1c	2g	.
2F	2A	.	2a	2r
2F	2A	2f	2a	2cc
=77	=77	=77	=77	=77
2D	2d	2f	2a	2ff
2D	4d	2d	2a	2ff
.	4c	.	.	.
2G	4B-y	2d	1b-y	2dd
.	4A	.	.	.
4G	2G	2g	.	2dd
4F	.	.	.	.
=78	=78	=78	=78	=78
4E	2r	4g	1cc	2gg
4D	.	4f	.	.
2C	2G	4e	.	4gg
.	.	4d	.	4ff
2r	2c	2c	2g	4ee
.	.	.	.	4dd
2C	2c	2r	2g	2cc
=79	=79	=79	=79	=79
2F	2A	2c	2a	2r
2F	2A	2f	2a	2cc
2D	2d	2f	2a	2ff
2D	4d	2d	2a	2ff
.	4c	.	.	.
=80	=80	=80	=80	=80
2G	4B-y	2d	1b-y	2dd
.	4A	.	.	.
4G	2G	2g	.	2dd
4F	.	.	.	.
4E	1G	4g	1cc	2gg
4D	.	4f	.	.
2C	.	4e	.	4gg
.	.	4d	.	4ff
=81	=81	=81	=81	=81
1C	0r	1c	1g	4ee
.	.	.	.	4dd
.	.	.	.	2cc
1r	.	2r	2r	2r
.	.	2c	2g	2ee
=82	=82	=82	=82	=82
0r	0r	2d	2f	2dd
.	.	2c	2.g	2.ee
.	.	2c	.	.
.	.	.	4f	4dd
.	.	2c	2e	[2cc
=83	=83	=83	=83	=83
1r	1r	1G	1d	2cc]
.	.	.	.	2bnXi
2r	2r	2r	1c	1cc
2C	2e	2g	.	.
=84	=84	=84	=84	=84
2D	2d	2f	0r	0r
2.C	2.e	2.g	.	.
4D	4d	4f	.	.
4E	[2c	2e	.	.
4F	.	.	.	.
=85	=85	=85	=85	=85
1G	2c]	1d	1r	1r
.	2BnXi	.	.	.
1C	1c	2r	2r	2r
.	.	2c	2g	2ee
=86	=86	=86	=86	=86
0r	0r	2d	2f	2dd
.	.	2c	2.g	2.ee
.	.	2c	.	.
.	.	.	4f	4dd
.	.	2c	2e	[2cc
=87	=87	=87	=87	=87
1r	1r	1G	1d	2cc]
.	.	.	.	2bnXi
2r	2r	2r	1c	1cc
2C	2e	2g	.	.
=88	=88	=88	=88	=88
2D	2d	2f	1r	0r
2.C	2.e	2.g	.	.
.	.	.	1g	.
4D	4d	4f	.	.
4E	[2c	2e	.	.
4F	.	.	.	.
=89	=89	=89	=89	=89
1G	2c]	1d	1g	0r
.	2BnXi	.	.	.
1C	1c	2e	1g	.
.	.	2c	.	.
=90	=90	=90	=90	=90
2r	1c	2g	2r	2r
2C	.	2c	2g	2ee
2G	2B-y	1r	1g	2dd
[2C	2c	.	.	[2ee
=91	=91	=91	=91	=91
4C]	1e	0r	1g	4ee]
4D	.	.	.	4dd
4E	.	.	.	1cc
4F	.	.	.	.
1G	1d	.	1r	.
.	.	.	.	2bnXi
=92	=92	=92	=92	=92
2C	[0c	2r	2r	[0ccl
2F	.	2f	2a	.
2C	.	2e	2g	.
[2F	.	2f	[2a	.
=93	=93	=93	=93	=93
4F]	0c]	1a	4a]	0cc_
4E	.	.	4g	.
2F	.	.	1f	.
1C	.	1g	.	.
.	.	.	2e	.
=94	=94	=94	=94	=94
00F	00A	00c	00f	00cc]
=95||	=95||	=95||	=95||	=95||
*M2/1	*M2/1	*M2/1	*M2/1	*M2/1
*met(C|)	*met(C|)	*met(C|)	*met(C|)	*met(C|)
!!section: Et incarnatus est 
!!!OMD: Et incarnatus est
0F	0A	0c	0a	0cc
=96	=96	=96	=96	=96
1F	1A	1c	1a	1cc
1F	1A	1c	1cc	1cc
=97	=97	=97	=97	=97
1.BB-y	1B-y	1d	1b-y	1.ff
.	[1d	1d	1b-y	.
2C	.	.	.	2ee
=98	=98	=98	=98	=98
2D	2d]	0f	0a	1dd
2E	4c	.	.	.
.	4B-y	.	.	.
1F	1A	.	.	1cc
=99	=99	=99	=99	=99
2r	1d	0f	0a	1ff
2D	.	.	.	.
1F	2A	.	.	1ff
.	[2c	.	.	.
=100	=100	=100	=100	=100
0C	2c]	1e	1g	1gg
.	4B-y	.	.	.
.	4A	.	.	.
.	1G	1e	1g	1gg
=101	=101	=101	=101	=101
1F	1F	[0f	1a	1cc
2r	2r	.	2r	1ff
2F	2A	.	2a	.
=102	=102	=102	=102	=102
1BB-y	1d	0f]	1b-y	2ff
.	.	.	.	2ee
1BB-y	1d	.	1b-y	2dd
.	.	.	.	4cc
.	.	.	.	4b-y
=103	=103	=103	=103	=103
0F	0c	[0f	1cc	2.a
.	.	.	.	4b-y
.	.	.	1f	1cc
=104	=104	=104	=104	=104
0D	0d	0f]	1.a	2f
.	.	.	.	1ff
.	.	.	2b-y	4ee
.	.	.	.	4dd
=105	=105	=105	=105	=105
0C;	0G;	0g;	0cc;	0ee;
=106	=106	=106	=106	=106
1F	1c	1f	1a	1cc
1F	1c	1f	1a	1cc
=107	=107	=107	=107	=107
1F	1A	1c	0a	1cc
1F	1A	1c	.	1cc
=108	=108	=108	=108	=108
0D	0F	[0f	1a	1.dd
.	.	.	[1a	.
.	.	.	.	2dd
=109	=109	=109	=109	=109
1.F	1.A	1f]	2a]	0cc
.	.	.	2f	.
.	.	1f	[1cc	.
2F	2A	.	.	.
=110	=110	=110	=110	=110
0C;	0G;	0e;	0cc;]	0ee;
=111	=111	=111	=111	=111
0C 0G	1r	0e	0cc	0cc
.	[1G	.	.	.
=112	=112	=112	=112	=112
1G 1B-y	1G]	0d	1b-y	1dd
1D 1F	1d	.	1a	1ff
=113	=113	=113	=113	=113
1F 1A	1A	0c	1a	1ff
1F 1A	1c	.	1a	1ff
=114	=114	=114	=114	=114
*^	*	*	*	*
1G	1C	1c	0e	0cc	0ee
1G	1C	1G	.	.	.
*v	*v	*	*	*	*
=115	=115	=115	=115	=115
1F	1r	0f	1r	1r
1F	1A	.	1cc	1cc
=116	=116	=116	=116	=116
0BB-y	1F	[0d	1dd	1ff
.	1F	.	1dd	1ff
=117	=117	=117	=117	=117
0BB-y	1D	0d]	1dd	1ff
.	1D	.	1dd	1ff
=118	=118	=118	=118	=118
[0Cl	0E	[0cl	0g	[0eel
=119	=119	=119	=119	=119
00C]	00G	00c]	00cc	00ee]
=120||	=120||	=120||	=120||	=120||
*	*	*	*M2/1	*M2/1
*	*	*	*met(C|)	*met(C|)
!!section: Crucifixus
!!!OMD: Crucifixus
0r	0r	0r	1r	1cc
.	.	.	1cc	1cc
=121	=121	=121	=121	=121
0r	0r	0r	1cc	1a
.	.	.	1a	1f
=122	=122	=122	=122	=122
0r	0r	0r	1f	2r
.	.	.	.	1f
.	.	.	2r	.
.	.	.	[2f	2f
=123	=123	=123	=123	=123
0r	0r	0r	2f]	2.a
.	.	.	2f	.
.	.	.	.	4b-y
.	.	.	2.a	4cc
.	.	.	.	4b-y
.	.	.	.	4a
.	.	.	4b-y	4g
=124	=124	=124	=124	=124
0r	0r	0r	4cc	4f
.	.	.	4b-y	4g
.	.	.	4a	4a
.	.	.	4g	4b-y
.	.	.	4a	4cc
.	.	.	4f	4dd
.	.	.	4g	4ee
.	.	.	4a	4ff
=125	=125	=125	=125	=125
0r	0r	0r	4b-y	4gg
.	.	.	4a	4ff
.	.	.	4g	4ee
.	.	.	4f	4dd
.	.	.	2g	1ee
.	.	.	[2a	.
=126	=126	=126	=126	=126
0r	0r	0r	2a]	2r
.	.	.	4g	2ee
.	.	.	4f	.
.	.	.	2g	2ee
.	.	.	2a	2ee
=127	=127	=127	=127	=127
0r	0r	0r	2d	2ff
.	.	.	2.a	4ee
.	.	.	.	4dd
.	.	.	.	4cc
.	.	.	4f	4dd
.	.	.	4g	4ee
.	.	.	4a	4ff
=128	=128	=128	=128	=128
0r	0r	0r	4b-y	4gg
.	.	.	4a	4ff
.	.	.	4g	4ee
.	.	.	4f	4dd
.	.	.	4e	4cc
.	.	.	4d	4b-y
.	.	.	2e	2cc
=129	=129	=129	=129	=129
0r	0r	0r	2d	1dd
.	.	.	2g	.
.	.	.	2g	2r
.	.	.	2g	2dd
=130	=130	=130	=130	=130
0r	0r	0r	2d	2dd
.	.	.	2d	2dd
.	.	.	1f	2a
.	.	.	.	2a
=131	=131	=131	=131	=131
0r	0r	0r	1c	1cc
.	.	.	2r	1g
.	.	.	2c	.
=132	=132	=132	=132	=132
0r	0r	0r	2.e	2r
.	.	.	.	2g
.	.	.	4f	.
.	.	.	2g	2b-y
.	.	.	2d	2b-y
=133	=133	=133	=133	=133
0r	0r	0r	2d	2a
.	.	.	2f	2a
.	.	.	4f	4a
.	.	.	8eL	8gL
.	.	.	8dJ	8fJ
.	.	.	4f	4a
.	.	.	4e	4g
=134	=134	=134	=134	=134
0r	0r	0r	2f	4a
.	.	.	.	4g
.	.	.	2cc	4f
.	.	.	.	4e
.	.	.	4cc	2f
.	.	.	4b-y	.
.	.	.	4a	2cc
.	.	.	4g	.
=135	=135	=135	=135	=135
0r	0r	0r	1a	4cc
.	.	.	.	4b-y
.	.	.	.	4a
.	.	.	.	4g
.	.	.	1f	2a
.	.	.	.	2f
=136	=136	=136	=136	=136
0r	0r	0r	2r	1g
.	.	.	1b-y	.
.	.	.	.	2f
.	.	.	2a	[2ff
=137	=137	=137	=137	=137
0r	0r	0r	2f	2ff]
.	.	.	2g	2ee
.	.	.	1a	2.cc
.	.	.	.	4dd
=138	=138	=138	=138	=138
0r	0r	0r	2g	2ee
.	.	.	2.cc	4a
.	.	.	.	4b-y
.	.	.	.	4cc
.	.	.	4b-y	4dd
.	.	.	2a	4ee
.	.	.	.	4ff
=139	=139	=139	=139	=139
0r	0r	0r	2g	2gg
.	.	.	2.a	2.cc
.	.	.	4g	4b-y
.	.	.	2f	2a
=140	=140	=140	=140	=140
0r	0r	0r	2e	2g
.	.	.	2.cc	2.a
.	.	.	4b-y	4g
.	.	.	2a	2f
=141	=141	=141	=141	=141
0r	0r	0r	2g	2e
.	.	.	2a	4f
.	.	.	.	4g
.	.	.	4f	4a
.	.	.	4g	4b-y
.	.	.	4a	2cc
.	.	.	4b-y	.
=142	=142	=142	=142	=142
0r	0r	0r	2cc	4f
.	.	.	.	4g
.	.	.	4f	4a
.	.	.	4g	4b-y
.	.	.	4a	4cc
.	.	.	4b-y	4dd
.	.	.	[2cc	2ee
=143	=143	=143	=143	=143
0r	0r	0r	4cc]	4a
.	.	.	4b-y	4b-y
.	.	.	4a	4cc
.	.	.	4f	4dd
.	.	.	4g	4ee
.	.	.	4a	4ff
.	.	.	[2b-y	[2gg
=144	=144	=144	=144	=144
0r	0r	0r	4b-]	4gg]
.	.	.	4a	4ff
.	.	.	4b-y	4gg
.	.	.	4a	4ff
.	.	.	4g	4ee
.	.	.	4f	4dd
.	.	.	2g	2ee
=145	=145	=145	=145	=145
00r	00r	00r	00f	00ff
=146||	=146||	=146||	=146||	=146||
*M2/1	*M2/1	*M2/1	*	*
*met(C|)	*met(C|)	*met(C|)	*	*
!!section: Et resurrexit
!!!OMD: Et resurrexit
0r	1r	1F	0r	0r
.	1F	[1A	.	.
=147	=147	=147	=147	=147
1F	1.A	2A]	0r	0r
.	.	2B-y	.	.
[1A	.	1c	.	.
.	2B-y	.	.	.
=148	=148	=148	=148	=148
2A]	1c	1F	0r	0r
2B-y	.	.	.	.
1c	1F	2r	.	.
.	.	[2c	.	.
=149	=149	=149	=149	=149
2F	2r	2c]	0r	0r
1A	1c	2c	.	.
.	.	1c	.	.
2G	2B-y	.	.	.
=150	=150	=150	=150	=150
2F	2A	1c	0r	0r
2E	2G	.	.	.
1D	4F	2.d	.	.
.	4G	.	.	.
.	4A	.	.	.
.	4B-y	4f	.	.
=151	=151	=151	=151	=151
2C	4c	2e	0r	0r
.	4A	.	.	.
2G	2.B-y	1d	.	.
2A	.	.	.	.
.	4A	.	.	.
2F	[2A	2c	.	.
=152	=152	=152	=152	=152
1G	2A]	1B-y	0r	0r
.	2G	.	.	.
[1D	[1A	1A	.	.
=153	=153	=153	=153	=153
1D]	1A]	2r	0r	0r
.	.	2d	.	.
2r	1r	2d	.	.
2D	.	2d	.	.
=154	=154	=154	=154	=154
2D	2r	2f	0r	0r
2D	2A	2f	.	.
1F	2A	2c	.	.
.	2A	4F	.	.
.	.	4G	.	.
=155	=155	=155	=155	=155
1F	1.c	4A	0r	0r
.	.	4B-y	.	.
.	.	4c	.	.
.	.	4d	.	.
[1C	.	4e	.	.
.	.	4f	.	.
.	4B-y	4g	.	.
.	4A	4f	.	.
=156	=156	=156	=156	=156
1C]	1G	4e	0r	0r
.	.	4d	.	.
.	.	2e	.	.
1F	1F	1f	.	.
=157	=157	=157	=157	=157
2r	2r	2r	0r	0r
1F	1f	1a	.	.
2C	2e	2g	.	.
=158	=158	=158	=158	=158
4D	1d	1f	0r	0r
4E	.	.	.	.
4F	.	.	.	.
4G	.	.	.	.
4A	1c	2e	.	.
4B-y	.	.	.	.
[2c	.	2c	.	.
=159	=159	=159	=159	=159
2c]	1f	1d	0r	0r
2B-y	.	.	.	.
2c	2e	1A	.	.
2A	2c	.	.	.
=160	=160	=160	=160	=160
1B-y	1d	2r	0r	0r
.	.	2f	.	.
2r	1A	2f	.	.
2F	.	2f	.	.
=161	=161	=161	=161	=161
2F	2r	2.c	0r	0r
2F	2c	.	.	.
.	.	4d	.	.
2.C	2c	2e	.	.
.	2c	2c	.	.
4D	.	.	.	.
=162	=162	=162	=162	=162
2E	2.G	1g	0r	0r
2C	.	.	.	.
.	4A	.	.	.
1G	2B-y	2d	.	.
.	2G	2e	.	.
=163	=163	=163	=163	=163
2D	1d	2f	0r	0r
1d	.	4d	.	.
.	.	4e	.	.
.	1A	4f	.	.
.	.	4g	.	.
2c	.	[2a	.	.
=164	=164	=164	=164	=164
1d	1B-y	2a]	0r	0r
.	.	2g	.	.
1D	1A	2a	.	.
.	.	4g	.	.
.	.	4f	.	.
=165	=165	=165	=165	=165
1A	1c	1e	0r	0r
1c	2c	1r	.	.
.	2B-y	.	.	.
=166	=166	=166	=166	=166
2c	2A	1c	0r	0r
2B-y	2G	.	.	.
2A	2F	2.c	.	.
2G	2E	.	.	.
.	.	4B-y	.	.
=167	=167	=167	=167	=167
2F	2F	2A	0r	0r
2E	2G	2.G	.	.
1F	1A	.	.	.
.	.	4F	.	.
.	.	[2f	.	.
=168	=168	=168	=168	=168
1C	1G	2f]	0r	0r
.	.	2e	.	.
1c	1F	1f	.	.
=169	=169	=169	=169	=169
2c	1.c	1r	0r	0r
2B-y	.	.	.	.
2A	.	1c	.	.
2G	2B-y	.	.	.
=170	=170	=170	=170	=170
2F	2A	2.c	0r	0r
2E	2G	.	.	.
.	.	4B-y	.	.
2F	2F	2A	.	.
2G	2E	[2G	.	.
=171	=171	=171	=171	=171
1A	1F	2G]	0r	0r
.	.	1F	.	.
1G	1B-y	.	.	.
.	.	2E	.	.
=172	=172	=172	=172	=172
2F	2A	2F	0r	0r
2F	2F	2f	.	.
2.C	1c	2e	.	.
.	.	[2g	.	.
4D	.	.	.	.
=173	=173	=173	=173	=173
2E	2B-y	2g]	0r	0r
2F	2A	1f	.	.
1C	1G	.	.	.
.	.	2e	.	.
=174	=174	=174	=174	=174
1c	[0F	1f	0r	0r
2d	.	1r	.	.
2c	.	.	.	.
=175	=175	=175	=175	=175
4c	0F]	1c	0r	0r
4B-y	.	.	.	.
4A	.	.	.	.
4G	.	.	.	.
2F	.	2d	.	.
2F	.	2c	.	.
=176	=176	=176	=176	=176
2.A	0r	4c	0r	0r
.	.	4B-y	.	.
.	.	4A	.	.
4B-y	.	4G	.	.
1c	.	2F	.	.
.	.	2F	.	.
=177	=177	=177	=177	=177
0F	1r	2.A	0r	0r
.	.	4B-y	.	.
.	1c	1c	.	.
=178	=178	=178	=178	=178
1r	2d	1F	0r	0r
.	2c	.	.	.
1C	4c	2r	.	.
.	4B-y	.	.	.
.	4A	2c	.	.
.	4G	.	.	.
=179	=179	=179	=179	=179
2.D	2F	2A	0r	0r
.	2F	2d	.	.
4E	.	.	.	.
1F	2.A	1c	.	.
.	4B-y	.	.	.
=180	=180	=180	=180	=180
1C	1c	2r	0r	0r
.	.	2g	.	.
1r	2F	2a	.	.
.	2G	2g	.	.
=181	=181	=181	=181	=181
1G	0C	4g	0r	0r
.	.	4f	.	.
.	.	4e	.	.
.	.	4d	.	.
2A	.	2c	.	.
2G	.	2g	.	.
=182	=182	=182	=182	=182
4G	2r	2G	0r	0r
4F	.	.	.	.
4E	2.c	2g	.	.
4D	.	.	.	.
2C	.	2a	.	.
.	4d	.	.	.
2C	[2e	[2g	.	.
=183	=183	=183	=183	=183
2.E	4e]	2g]	0r	0r
.	4d	.	.	.
.	1c	4f	.	.
4F	.	4e	.	.
1G	.	1d	.	.
.	2BnXi	.	.	.
=184	=184	=184	=184	=184
2C	2c	2e	0r	0r
1F	1A	1f	.	.
2F	2A	2f	.	.
=185	=185	=185	=185	=185
1D	1A	1f	0r	0r
1F	1A	1f	.	.
=186	=186	=186	=186	=186
00C	00G 00c	00e	00r	00r
=187||	=187||	=187||	=187||	=187||
*M2/1	*M2/1	*M2/1	*M2/1	*M2/1
*met(C|)	*met(C|)	*met(C|)	*met(C|)	*met(C|)
!!section: Et in spiritum
!!!OMD: Et in spiritum
0r	1c	0r	0r	0r
.	2d	.	.	.
.	[2f	.	.	.
=188	=188	=188	=188	=188
0r	2f]	0r	0r	1r
.	4e	.	.	.
.	4d	.	.	.
.	2e	.	.	1cc
.	2e	.	.	.
=189	=189	=189	=189	=189
0r	1.d	0r	0r	2dd
.	.	.	.	1ff
.	4c	.	.	4ee
.	4B-y	.	.	4dd
=190	=190	=190	=190	=190
0r	1A	0r	1c	2ee
.	.	.	.	2ee
.	2D	.	2d	1dd
.	[2d	.	[2f	.
=191	=191	=191	=191	=191
1r	2d]	0r	2f]	1r
.	4c	.	4e	.
.	4B-y	.	4d	.
1C	1c	.	2e	1ee
.	.	.	2e	.
=192	=192	=192	=192	=192
2D	2.F	0r	2d	2ff
1F	.	.	1a	4ee
.	4G	.	.	4dd
.	2A	.	.	2cc
4E	2B-y	.	4g	2dd
4D	.	.	4f	.
=193	=193	=193	=193	=193
2E	1G	1c	1g	2g
2E	.	.	.	2ee
1D	[1A	2d	2.f	2ff
.	.	[2f	.	[2dd
.	.	.	4g	.
=194	=194	=194	=194	=194
1D	1A]	2f]	4a	2dd]
.	.	.	4b-y	.
.	.	4e	2.a	4cc
.	.	4d	.	4b-y
1A	1r	2e	.	1cc
.	.	.	4g	.
.	.	2e	2a	.
=195	=195	=195	=195	=195
2.B-y	2.d	2.d	2f	1dd
.	.	.	2d	.
4A	4c	4f	.	.
2G	2B-y	2e	1g	1r
2F	2A	[2d	.	.
=196	=196	=196	=196	=196
1E	1G	2d]	1g	1ee
.	.	2c#i	.	.
4D	1A	1d	2f	1ff
4E	.	.	.	.
4F	.	.	[2a	.
4G	.	.	.	.
=197	=197	=197	=197	=197
2A	0r	2r	4a]	2ee
.	.	.	4g	.
1B-y	.	1G	1g	1dd
2F	.	2A	[2f	2cc
=198	=198	=198	=198	=198
1G	1r	2B-y	2f]	1b-y
.	.	2B-y	2e	.
1F	1A	1c	1f	1a
=199	=199	=199	=199	=199
1r	1A	1c	1r	1r
1G	1B-y	1r	1b-y	1dd
=200	=200	=200	=200	=200
1G	1B-y	1G	1b-y	1dd
1G	1G	1d	1b-y	1dd
=201	=201	=201	=201	=201
1D	1d	1d	1a	1ff
1D	1d	1f	1dd	2ff
.	.	.	.	2ff
=202	=202	=202	=202	=202
1F	1.A	2f	2.cc	2.ff
.	.	2f	.	.
.	.	.	4b-y	8eeL
.	.	.	.	8ddJ
1F	.	1f	1a	2cc
.	2A	.	.	2dd
=203	=203	=203	=203	=203
2.C	1c	2e	1g	2.ee
.	.	1g	.	.
4D	.	.	.	4ff
2E	1c	.	2g	2gg
2F	.	[2f	[2a	2cc
=204	=204	=204	=204	=204
2D	2r	2f]	2a]	[0dd
1G	4G	2.d	1b-y	.
.	4A	.	.	.
.	4B-y	.	.	.
.	4c	4e	.	.
4F	[2d	[2f	4a	.
4E	.	.	4g	.
=205	=205	=205	=205	=205
2F	4d]	4f]	2a	0dd]
.	4c	4e	.	.
2G	2B-y	1d	2g	.
2.D	2A	.	4d	.
.	.	.	4e	.
.	2d	4c	4f	.
4E	.	4B-y	4g	.
=206	=206	=206	=206	=206
4F	2c	1A	4a	1r
4G	.	.	4b-y	.
1A	4F	.	2.cc	.
.	4G	.	.	.
.	4A	4F	.	1cc
.	4B-y	4G	4b-y	.
2F	[2c	4A	2a	.
.	.	4B-y	.	.
=207	=207	=207	=207	=207
2E	4c]	0c	2g	2cc
.	4B-y	.	.	.
2F	2A	.	1f	2.cc
1C	1G	.	.	.
.	.	.	.	4b-y
.	.	.	2e	2g
=208	=208	=208	=208	=208
0F	0F	2r	0f	1a
.	.	2c	.	.
.	.	2f	.	2r
.	.	2f	.	2cc
=209	=209	=209	=209	=209
0r	0r	2d	2r	2ff
.	.	2d	2f	2ff
.	.	2.g	2b-y	2dd
.	.	.	2b-y	2dd
.	.	4f	.	.
=210	=210	=210	=210	=210
0r	0r	2.e	2g	2.gg
.	.	.	2g	.
.	.	4d	.	4ff
.	.	1c	2.cc	2.ee
.	.	.	4b-y	4dd
=211	=211	=211	=211	=211
1r	1r	1f	2.a	1cc
.	.	.	4g	.
2r	2r	2r	[1f	1dd
2BB-y	2B-y	2d	.	.
=212	=212	=212	=212	=212
2F	2A	2c	0f_	0r
1BB-y	1B-y	1d	.	.
2C	4A	4c	.	.
.	4G	4B-y	.	.
=213	=213	=213	=213	=213
2D	2F	2A	1f]	0r
2BB-y	2d	2B-y	.	.
2F	2c	2A	1r	.
[2BB-y	[2d	2B-y	.	.
=214	=214	=214	=214	=214
4BB-]	2d]	[0F	2.f	2r
4C	.	.	.	.
4D	4c	.	.	2dd
4E	4B-y	.	4g	.
2F	2A	.	2a	2cc
[2BB-y	2D	.	[2b-y	[2dd
=215	=215	=215	=215	=215
2BB-]	1r	0F]	2b-]	2dd]
2C	.	.	4a	4cc
.	.	.	4g	4b-y
1D	2r	.	2f	2a
.	2BB-y	.	2dd	2b-y
=216	=216	=216	=216	=216
0r	2F	1F	2cc	2a
.	2.BB-y	.	1dd	1b-y
.	.	2r	.	.
.	4C	.	.	.
.	4D	2d	4cc	4a
.	4E	.	4b-y	4g
=217	=217	=217	=217	=217
0r	2F	2c	2a	1f
.	2.BB-y	1d	1b-y	.
.	.	.	.	2r
.	4C	.	.	.
.	4D	4c	4a	[2ff
.	4E	4B-y	4g	.
=218	=218	=218	=218	=218
0r	2F	1A	1f	2ff]
.	2D	.	.	2ff
.	1F	1A	2r	2ff
.	.	.	2f	2ff
=219	=219	=219	=219	=219
0r	2.C	2G	2g	1ee
.	.	1c	4c	.
.	4BB-y	.	4d	.
.	4C	.	4e	[1cc
.	4D	.	4f	.
.	[2E	4B-y	[2g	.
.	.	4A	.	.
=220	=220	=220	=220	=220
1r	2E]	4G	4g]	2cc]
.	.	4F	4a	.
.	2F	2A	1f	2cc
1C	1C	1G	.	1cc
.	.	.	2e	.
=221	=221	=221	=221	=221
1D	1r	[0F	[0f	[0a
[1F	1c	.	.	.
=222	=222	=222	=222	=222
2F]	1d	0F_	0f]	0a]
2F	.	.	.	.
2.F	[1f	.	.	.
4E	.	.	.	.
=223	=223	=223	=223	=223
4D	2f]	0F]	0r	0r
4C	.	.	.	.
1D	2f	.	.	.
.	2f	.	.	.
4C	4e	.	.	.
4BB-y	4d	.	.	.
=224	=224	=224	=224	=224
2AA	2c	0r	2r	0r
2.BB-y	1d	.	1f	.
4C	.	.	.	.
4D	4c	.	4e	.
4E	4B-y	.	4d	.
=225	=225	=225	=225	=225
2F	2A	0r	2c	0r
1D	1B-y	.	1f	.
2C	[2A	.	2e	.
=226	=226	=226	=226	=226
2D	2A]	1r	2f	0r
2E	2G	.	2g	.
[1F	[1A	2r	1c	.
.	.	2F	.	.
=227	=227	=227	=227	=227
0F_	1A]	2c	0r	2r
.	.	2d	.	2f
.	1r	2c	.	2cc
.	.	[2f	.	2dd
=228	=228	=228	=228	=228
1F]	0r	4f]	0r	2cc
.	.	4g	.	.
.	.	4a	.	2ff
.	.	4f	.	.
1r	.	2.g	.	4ee
.	.	.	.	4dd
.	.	.	.	2ee
.	.	8fL	.	.
.	.	8gJ	.	.
=229	=229	=229	=229	=229
0r	0r	2a	0r	2ff
.	.	2g	.	1ee
.	.	2c	.	.
.	.	[2g	.	4dd
.	.	.	.	4cc
=230	=230	=230	=230	=230
0r	0r	2g]	0r	2b-y
.	.	4f	.	1cc
.	.	4e	.	.
.	.	1d	.	.
.	.	.	.	2bnXi
=231	=231	=231	=231	=231
1r	1r	1c	1r	1cc
2r	2r	2r	2r	2r
2C	2G	2e	2g	2cc
=232	=232	=232	=232	=232
2C	2G	2e	2g	2cc
2C	2G	2e	2g	2cc
2C	2c	2e	2g	2cc
2C	2c	2e	2g	2cc
=233	=233	=233	=233	=233
1.G	1.B-y	1.d	1.b-y	1.dd
2F	2c	2d	2a	2ee
=234	=234	=234	=234	=234
1D	1d	1d	1f	1ff
1G	1B-y	1d	1g	1dd
=235	=235	=235	=235	=235
1D	1A	1f	1a	1dd
1F	2r	2r	2r	1cc
.	2F	2f	2a	.
=236	=236	=236	=236	=236
0r	2c	2e	2g	[0cc
.	2F	2f	2a	.
.	2c	2e	2g	.
.	2F	2f	2a	.
=237	=237	=237	=237	=237
0r	2c	2e	2g	0cc]
.	2F	2f	2a	.
.	2c	2e	2g	.
.	[2F	[2f	2f	.
=238	=238	=238	=238	=238
1r	4F]	2f]	1a	1cc
.	4G	.	.	.
.	4A	4e	.	.
.	4B-y	4d	.	.
2r	1c	2e	1g	2r
2C	.	2c	.	2ee
=239	=239	=239	=239	=239
2G	[0G	2d	2r	2dd
2C	.	2c	2cc	2ee
2G	.	2d	2b-y	2dd
2C	.	2c	2cc	2ee
=240	=240	=240	=240	=240
2G	0G_	2d	2b-y	2dd
2C	.	2c	2cc	2ee
2G	.	2d	2b-y	2dd
[2C	.	2e	[2cc	2cc
=241	=241	=241	=241	=241
4C]	0G]	2c	2cc]	1ee
4D	.	.	.	.
4E	.	2.g	4b-y	.
4F	.	.	4a	.
1G	.	.	1b-y	1dd
.	.	4f	.	.
.	.	2d	.	.
=242	=242	=242	=242	=242
1C	1r	1e	1cc	1cc
2r	2r	2r	2r	2r
[2D	2A	[2d	[2f	[2ff
=243	=243	=243	=243	=243
2D]	2D	2d]	2f]	2ff]
2D	2A	2d	2f	2ff
2D	2D	2d	2f	2.ff
2D	2A	2d	2f	.
.	.	.	.	4ee
=244	=244	=244	=244	=244
1BB-y	2.B-y	0d	0f	2dd
.	.	.	.	4cc
.	4A	.	.	4b-y
1D	2.F	.	.	2a
.	.	.	.	2f
.	4G	.	.	.
=245	=245	=245	=245	=245
1AA	1A	1c	1e	1cc
2r	2r	2r	2r	2r
[2F	[2A	[2f	[2a	[2cc
=246	=246	=246	=246	=246
2F]	2A]	2f]	2a]	2cc]
2F	2A	2f	2a	2cc
1F	1F	1f	1a	1cc
=247	=247	=247	=247	=247
0C	3%2c	3e	0g	[0cc
.	.	3c	.	.
.	3c	3d	.	.
.	3%2c	3.e	.	.
.	.	6f	.	.
.	3G	3g	.	.
=248	=248	=248	=248	=248
3.C	3%2c	3c	0r	0cc]
.	.	3.g	.	.
6D	.	.	.	.
3E	3B-y	.	.	.
.	.	6f	.	.
3F	3A	3%2f	.	.
3%2C	3%2G	.	.	.
.	.	3e	.	.
=249	=249	=249	=249	=249
1F	0F	1f	1r	2r
.	.	.	.	2cc
2r	.	1c	2r	1cc
2F	.	.	2a	.
=250	=250	=250	=250	=250
2E	2r	2r	2g	1cc
2F	2A	2c	2a	.
2D	2d	2f	2a	1dd
2D	2d	2f	2f	.
=251	=251	=251	=251	=251
3%2G	3%2B-y	3%2d	3%2b-y	3%2dd
3G	3G	3g	3b-y	3dd
3D	3A	3f	3a	3%2dd
3%2G	3%2B-y	3%2d	3%2g	.
.	.	.	.	3dd
=252	=252	=252	=252	=252
3%2D	3%2A	3%2d	3%2a	3%2ff
3D	3F	3d	3a	3ff
3F	3%2A	3c	3a	3cc
3%2F	.	3%2f	3%2f	3cc
.	3A	.	.	3dd
=253	=253	=253	=253	=253
3%2C	3%2G	3%2e	1g	1ee
3r	3r	3r	.	.
3G	3B-y	3e	1r	1r
3G	3B-y	3e	.	.
3G	3B-y	3e	.	.
=254	=254	=254	=254	=254
3%2A	3%2c	3f	1r	1r
.	.	3.e	.	.
3F	3A	.	.	.
.	.	6d	.	.
3G	3B-y	3%2d	3g	3ee
3%2E	3%2G	.	3g	3ee
.	.	3c#i	3e	3ee
=255	=255	=255	=255	=255
1D	0A	1d	3%2a	3%2ff
.	.	.	3g	3ee
1r	.	1r	3f	3%2dd
.	.	.	3%2e	.
.	.	.	.	3cc#i
=256	=256	=256	=256	=256
2r	2r	2r	2d	2dd
2F	2A	2c	2f	2a
2F	2A	2c	2f	2a
2F	2A	2c	2f	2a
=257	=257	=257	=257	=257
3%2BB-y	3%2d	3%2B-y	3%2f	3%2b-y
3BB-y	3D	3B-y	3d	3b-y
3BB-y	3D	3B-y	3d	3f
3%2GG	3%2G	3B-y	3d	3g
.	.	3B-y	3d	3g
=258	=258	=258	=258	=258
2.D	2F	1A	[0f	0a
.	4D	.	.	.
4C	4E	.	.	.
4D	4F	2r	.	.
4E	4G	.	.	.
2F	4A	2c	.	.
.	4F	.	.	.
=259	=259	=259	=259	=259
2r	1B-y	1d	1f]	1r
2BB-y	.	.	.	.
1F	1A	1c	2r	2r
.	.	.	2a	2cc
=260	=260	=260	=260	=260
4BB-y	1r	1r	1b-y	1dd
4C	.	.	.	.
4D	.	.	.	.
4E	.	.	.	.
1F	2r	2r	1a	1cc
.	2A	2c	.	.
=261	=261	=261	=261	=261
2BB-y	2B-y	2d	2r	2r
2F	2A	2c	2a	2cc
2BB-y	2r	2r	2b-y	2dd
2F	2A	2c	2a	2cc
=262	=262	=262	=262	=262
2r	2B-y	2d	2r	2r
2F	2A	2c	2a	2cc
2BB-y	[1F	2.f	2b-y	2dd
2F	.	.	2a	2cc
.	.	4e	.	.
=263	=263	=263	=263	=263
2BB-y	0F]	2d	2b-y	2.ff
2.F	.	2c	2.a	.
.	.	.	.	4ee
.	.	1f	.	2cc
4E	.	.	4g	.
2D	.	.	4a	2dd
.	.	.	4b-y	.
=264	=264	=264	=264	=264
0C;	0G;	0e;	0cc;	0ee;
=265	=265	=265	=265	=265
0F	[0F	1.f	0a	0cc
.	.	2e	.	.
=266	=266	=266	=266	=266
0BB-y	0F]	2d	0b-y	1.dd
.	.	2c	.	.
.	.	1d	.	.
.	.	.	.	4cc
.	.	.	.	4b-y
=267	=267	=267	=267	=267
0F	[0Fl	[0cl	0cc	[0al
=268	=268	=268	=268	=268
00Fl	00F]	00c]	00ccl	00a] 00ff>
==	==	==	==	==
*-	*-	*-	*-	*-
!!!system-decoration: [*]
!!!RDF**kern: i = editorial accidental
!!!RDF**kern: l = terminal long
!!!ENC: Benjamin Ory
!!!END: 2024/9/27
!!!EED: Benjamin Ory
!!!EEV: 2024/09/27
!!!YEC: Copyright 2024 Benjamin Ory, All Rights Reserved
!!!ONB: Translated from MusicXML on 2024/09/27